icons/svgs/map-pin-outline.svg

<svg width="24" height="24" viewBox="0 0 24 24" fill="none" xmlns="http://www.w3.org/2000/svg">
<path d="M8.75 7.625C8.75 8.99219 9.45312 10.2031 10.625 10.9062C11.7578 11.5703 13.2031 11.5703 14.375 10.9062C15.5078 10.2031 16.25 8.99219 16.25 7.625C16.25 6.29688 15.5078 5.08594 14.375 4.38281C13.2031 3.71875 11.7578 3.71875 10.625 4.38281C9.45312 5.08594 8.75 6.29688 8.75 7.625ZM13.4375 13.1719V21.0625C13.4375 21.6094 13.0078 22 12.5 22C11.9531 22 11.5625 21.6094 11.5625 21.0625V13.1719C8.86719 12.7422 6.875 10.4375 6.875 7.625C6.875 4.53906 9.375 2 12.5 2C15.5859 2 18.125 4.53906 18.125 7.625C18.125 10.4375 16.0938 12.7422 13.4375 13.1719Z" fill="black"/>
</svg>

<svg xmlns="http://www.w3.org/2000/svg" width="24" height="24" fill="currentColor" class="icon-map-pin-outline" viewBox="0 0 24 24">
  <mask id="a" width="13" height="20" x="6" y="2" maskUnits="userSpaceOnUse" style="mask-type:alpha">
    <path d="M8.75 7.625c0 1.367.703 2.578 1.875 3.281 1.133.664 2.578.664 3.75 0 1.133-.703 1.875-1.914 1.875-3.281 0-1.328-.742-2.54-1.875-3.242-1.172-.664-2.617-.664-3.75 0-1.172.703-1.875 1.914-1.875 3.242m4.688 5.547v7.89c0 .547-.43.938-.938.938-.547 0-.937-.39-.937-.937v-7.891c-2.696-.43-4.688-2.735-4.688-5.547C6.875 4.539 9.375 2 12.5 2c3.086 0 5.625 2.54 5.625 5.625a5.6 5.6 0 0 1-4.687 5.547"/>
  </mask>
  <g mask="url(#a)">
    <path d="M0 0h24v24H0z"/>
  </g>
</svg>
